image/colors.svg

<svg width="69" height="75" viewBox="0 0 69 75" fill="none" xmlns="http://www.w3.org/2000/svg">
<path d="M52.3547 22.692C48.0026 21.2413 40.1689 19.5535 40.1689 16.507C40.1689 13.6056 41.6196 10.7042 41.6196 7.80279C41.6196 4.9014 37.2675 2 31.4647 2C12.6056 3.4507 1 22.3098 1 35.3661C1 48.4223 6.80279 61.1885 30.7084 61.1885M52.3547 22.692C53.1097 21.6276 53.8832 20.5348 54.6758 19.4084M52.3547 22.692C51.1963 24.3251 50.0815 25.8911 49.0077 27.4085M30.7084 61.1885C29.67 64.366 28.699 67.8154 27.7826 71.6335M30.7084 61.1885C35.195 47.4604 40.9427 38.806 49.0077 27.4085M54.6758 19.4084L55.8364 20.1821M54.6758 19.4084C52.6669 22.2632 50.7813 24.9022 49.0077 27.4085M59.0279 22.3098L58.7378 22.1164M59.0279 22.3098C58.5404 23.6911 58.0574 25.0314 57.5772 26.3339M59.0279 22.3098C57.9734 25.2975 56.9402 28.0936 55.9103 30.7291M27.7826 71.6335C27.2255 73.9546 26.8405 74.8251 28.5633 73.0716M27.7826 71.6335C32.6584 51.3197 39.0759 41.444 49.0077 27.4085M28.5633 73.0716C33.9028 67.6368 38.2377 62.659 41.9885 57.4167M28.5633 73.0716C34.1715 67.3634 38.6714 62.1591 42.5503 56.6231M49.5366 26.6619L55.7987 31.014M55.7987 31.014C55.8359 30.9192 55.8731 30.8242 55.9103 30.7291M55.7987 31.014C51.7168 41.4147 47.6756 49.3085 42.5503 56.6231M55.8364 20.1821L58.7378 22.1164M55.8364 20.1821C56.4167 18.538 56.4167 17.9577 56.2716 16.1685C56.1265 14.476 56.1265 13.8957 56.7068 12.1549C58.1575 9.54363 58.7378 8.09293 61.9293 7.07744C64.8307 6.06196 66.2814 4.9014 67.7321 2M67.7321 2L67.749 2.18591M67.7321 2C67.7378 2.0623 67.7434 2.12427 67.749 2.18591M58.7378 22.1164C59.3181 20.5689 60.1885 19.6985 62.5096 18.5863C64.5406 17.6675 64.8307 17.0873 66.2814 15.0563C68.5799 11.3213 68.3178 8.43979 67.749 2.18591M57.5772 26.3339C63.38 33.9154 56.7068 51.0336 41.9885 57.4167M57.5772 26.3339C57.0188 27.8486 56.4641 29.3121 55.9103 30.7291M41.9885 57.4167C42.1772 57.1529 42.3645 56.8884 42.5503 56.6231M55.9103 30.7291C51.7904 41.2708 47.7223 49.2419 42.5503 56.6231M14.9267 16.0718C12.3154 16.0718 10.5746 17.8126 10.5746 20.4239C10.5746 23.0351 12.3154 24.776 14.9267 24.776C17.538 24.776 19.2788 23.0351 19.2788 20.4239C19.2788 17.8126 17.538 16.0718 14.9267 16.0718ZM9.70419 29.9985C7.09293 29.9985 5.3521 31.7393 5.3521 34.3506C5.3521 36.9618 7.09293 38.7027 9.70419 38.7027C12.3154 38.7027 14.0563 36.9618 14.0563 34.3506C14.0563 31.7393 12.3154 29.9985 9.70419 29.9985ZM16.3774 44.7956C13.7661 44.7956 12.0253 46.5364 12.0253 49.1477C12.0253 51.759 13.7661 53.4998 16.3774 53.4998C18.9887 53.4998 20.7295 51.759 20.7295 49.1477C20.7295 46.5364 18.9887 44.7956 16.3774 44.7956ZM37.7027 22.3098C34.8013 22.3098 31.8999 27.2422 31.8999 29.5633C31.8999 31.8844 31.8999 33.9154 34.8013 33.9154C37.7027 33.9154 40.6041 28.983 40.6041 26.6619C40.6041 24.3408 40.6041 22.3098 37.7027 22.3098Z" stroke="black"/>
</svg>

<svg xmlns="http://www.w3.org/2000/svg" width="69" height="75" fill="none" viewBox="0 0 69 75">
  <path stroke="url(#a)" d="M52.355 22.692c-4.352-1.45-12.186-3.139-12.186-6.185 0-2.901 1.45-5.803 1.45-8.704C41.62 4.9 37.268 2 31.466 2 12.605 3.45 1 22.31 1 35.366c0 13.056 5.803 25.822 29.708 25.822m18.829-34.526 6.262 4.352m.037-10.832-1.16-.774C41.417 38.25 33.529 47.692 27.783 71.633c-.558 2.322-.943 3.192.78 1.439C43.52 57.85 50.592 46.212 59.028 22.31l-.29-.194m-2.902-1.934 2.902 1.934m-2.902-1.934c.58-1.644.58-2.224.436-4.013-.145-1.693-.145-2.273.435-4.014 1.45-2.611 2.03-4.062 5.222-5.078C64.831 6.062 66.281 4.901 67.732 2c.58 6.383.87 9.284-1.45 13.056-1.451 2.031-1.741 2.612-3.772 3.53-2.322 1.113-3.192 1.983-3.772 3.53m-1.16 4.218c5.802 7.581-.871 24.7-15.59 31.083m-27.06-41.345c-2.612 0-4.352 1.74-4.352 4.352 0 2.611 1.74 4.352 4.352 4.352 2.611 0 4.352-1.74 4.352-4.352 0-2.611-1.741-4.352-4.352-4.352ZM9.704 29.999c-2.611 0-4.352 1.74-4.352 4.352 0 2.61 1.74 4.352 4.352 4.352 2.611 0 4.352-1.741 4.352-4.352 0-2.612-1.74-4.352-4.352-4.352Zm6.673 14.797c-2.61 0-4.352 1.74-4.352 4.352 0 2.611 1.741 4.352 4.352 4.352 2.612 0 4.353-1.741 4.353-4.352 0-2.612-1.741-4.352-4.353-4.352ZM37.703 22.31c-2.902 0-5.803 4.932-5.803 7.253 0 2.321 0 4.352 2.901 4.352 2.902 0 5.803-4.932 5.803-7.253 0-2.321 0-4.352-2.901-4.352Z"/>
  <defs>
    <radialGradient id="a" cx="-.2" cy="0" r="1" gradientTransform="matrix(0 36 -33.5705 0 34.57 38)" gradientUnits="userSpaceOnUse">
      <stop offset="0.1" stop-color="#000000"/>
        <stop offset="0.25" stop-color="#ffffff"/>
        <stop offset="0.9" stop-color="#000000"/>
    </radialGradient>
  </defs>
</svg>
